X:7821
T:Russian folk song
C:anon.
O:Russia
Z:Transcribed by Frank Nordberg - http://www.musicaviva.com
F:http://abc.musicaviva.com/tunes/russia/russian-folk-song-02-am.abc
M:C
L:1/4
K:Am
"Am"e2cd|"Am"e2c2|"Em7"dcBd|"Am"c2e2|"Am"e2cd|"Am"e2c2|"Em7"dcBd|"Am"c2A2:|
|:"Dm"f2ed|"Am"e2c2|"Dm"fedf|"Am"e2c2|"Dm"f2ed|"Am"e2c2|"Em7"dcBd|"Am"c2A2:|
"Am"e2cd|"Am"e2c2|"Em7"dcBd|"Am"c2e2|"Am"e2cd|"Am"e2c2|"Em7"dcBd|"Am"c2HA2|]
W:
W:
W:  From Musica Viva - http://www.musicaviva.com
W:  the Internet center for free sheet music downloads.

